flaticon/constructions/log-1.svg

<svg xmlns="http://www.w3.org/2000/svg" width="32" height="32" viewBox="0 0 24 24">
    <path d="M18.398438 6.800781L19.601562 6.800781C19.839844 6.800781 20 6.640625 20 6.398438 20 6.160156 19.839844 6 19.601562 6L18.398438 6C18.160156 6 18 6.160156 18 6.398438 18 6.640625 18.160156 6.800781 18.398438 6.800781zM13.199219 6.800781L16 6.800781C16.238281 6.800781 16.398438 6.640625 16.398438 6.398438 16.398438 6.160156 16.238281 6 16 6L13.199219 6C12.960938 6 12.800781 6.160156 12.800781 6.398438 12.800781 6.640625 12.960938 6.800781 13.199219 6.800781zM2.601562 17.761719C2.800781 17.640625 2.878906 17.398438 2.761719 17.199219 2.640625 17 2.398438 16.480469 2.398438 15.601562 2.398438 14.71875 2.640625 14.199219 2.761719 14 2.878906 13.800781 2.800781 13.558594 2.601562 13.441406 2.398438 13.359375 2.160156 13.398438 2.039062 13.601562 1.921875 13.839844 1.601562 14.519531 1.601562 15.601562 1.601562 16.679688 1.921875 17.359375 2.039062 17.601562 2.121094 17.71875 2.28125 17.800781 2.398438 17.800781 2.480469 17.800781 2.558594 17.800781 2.601562 17.761719zM9.199219 14L15.601562 14C15.839844 14 16 13.839844 16 13.601562 16 13.359375 15.839844 13.199219 15.601562 13.199219L9.199219 13.199219C8.960938 13.199219 8.800781 13.359375 8.800781 13.601562 8.800781 13.839844 8.960938 14 9.199219 14zM12.398438 15.199219C12.160156 15.199219 12 15.359375 12 15.601562 12 15.839844 12.160156 16 12.398438 16L13.601562 16C13.839844 16 14 15.839844 14 15.601562 14 15.359375 13.839844 15.199219 13.601562 15.199219zM10.398438 15.601562C10.398438 15.359375 10.238281 15.199219 10 15.199219L6 15.199219C5.761719 15.199219 5.601562 15.359375 5.601562 15.601562 5.601562 15.839844 5.761719 16 6 16L10 16C10.238281 16 10.398438 15.839844 10.398438 15.601562zM14.800781 15.601562C14.800781 15.839844 14.960938 16 15.199219 16L17.601562 16C17.839844 16 18 15.839844 18 15.601562 18 15.359375 17.839844 15.199219 17.601562 15.199219L15.199219 15.199219C14.960938 15.199219 14.800781 15.359375 14.800781 15.601562zM13.601562 9.601562L12.398438 9.601562C12.160156 9.601562 12 9.761719 12 10 12 10.238281 12.160156 10.398438 12.398438 10.398438L13.601562 10.398438C13.839844 10.398438 14 10.238281 14 10 14 9.761719 13.839844 9.601562 13.601562 9.601562zM17.601562 9.601562L15.199219 9.601562C14.960938 9.601562 14.800781 9.761719 14.800781 10 14.800781 10.238281 14.960938 10.398438 15.199219 10.398438L17.601562 10.398438C17.839844 10.398438 18 10.238281 18 10 18 9.761719 17.839844 9.601562 17.601562 9.601562zM21.199219 17.199219L18 17.199219C17.761719 17.199219 17.601562 17.359375 17.601562 17.601562 17.601562 17.839844 17.761719 18 18 18L21.199219 18C21.441406 18 21.601562 17.839844 21.601562 17.601562 21.601562 17.359375 21.441406 17.199219 21.199219 17.199219zM15.199219 17.199219L10.398438 17.199219C10.160156 17.199219 10 17.359375 10 17.601562 10 17.839844 10.160156 18 10.398438 18L15.199219 18C15.441406 18 15.601562 17.839844 15.601562 17.601562 15.601562 17.359375 15.441406 17.199219 15.199219 17.199219zM15.199219 17.199219"/>
    <path d="M 23.753906 10.207031 C 23.929688 9.640625 24 9.039062 24 8.398438 C 24 6.160156 22.960938 4.398438 21.601562 4.398438 L 6.398438 4.398438 C 5.113281 4.398438 4.109375 5.980469 4.007812 8.050781 C 2.914062 8.332031 2.101562 9.792969 2.007812 11.648438 C 0.847656 11.949219 0 13.582031 0 15.601562 C 0 17.839844 1.039062 19.601562 2.398438 19.601562 L 21.601562 19.601562 C 22.960938 19.601562 24 17.839844 24 15.601562 C 24 14.953125 23.914062 14.34375 23.753906 13.808594 C 23.929688 13.242188 24 12.636719 24 12 C 24 11.351562 23.914062 10.746094 23.753906 10.207031 Z M 21.796875 11.613281 C 21.773438 11.609375 21.746094 11.605469 21.714844 11.605469 C 21.679688 11.601562 21.640625 11.601562 21.601562 11.601562 L 6.800781 11.601562 C 6.769531 11.175781 6.707031 10.773438 6.617188 10.398438 L 10 10.398438 C 10.238281 10.398438 10.398438 10.238281 10.398438 10 C 10.398438 9.761719 10.238281 9.601562 10 9.601562 L 6.351562 9.601562 C 6.21875 9.296875 6.0625 9.023438 5.878906 8.800781 L 21.601562 8.800781 C 21.621094 8.800781 21.644531 8.800781 21.664062 8.804688 C 21.667969 8.804688 21.671875 8.804688 21.679688 8.804688 C 21.816406 8.820312 21.953125 8.878906 22.089844 8.972656 C 22.101562 8.980469 22.109375 8.988281 22.121094 8.996094 C 22.125 9 22.128906 9.003906 22.132812 9.007812 C 22.308594 9.144531 22.472656 9.347656 22.617188 9.601562 L 19.601562 9.601562 C 19.359375 9.601562 19.199219 9.761719 19.199219 10 C 19.199219 10.238281 19.359375 10.398438 19.601562 10.398438 L 22.96875 10.398438 C 22.972656 10.402344 22.976562 10.40625 22.976562 10.410156 C 23.117188 10.871094 23.199219 11.40625 23.199219 12 C 23.199219 12.191406 23.164062 12.34375 23.160156 12.53125 C 22.796875 12.023438 22.339844 11.691406 21.828125 11.617188 C 21.816406 11.617188 21.808594 11.613281 21.796875 11.613281 Z M 21.601562 5.199219 C 21.957031 5.199219 22.332031 5.492188 22.632812 6 L 21.199219 6 C 20.960938 6 20.800781 6.160156 20.800781 6.398438 C 20.800781 6.640625 20.960938 6.800781 21.199219 6.800781 L 22.972656 6.800781 C 23.113281 7.261719 23.199219 7.800781 23.199219 8.398438 C 23.199219 8.59375 23.199219 8.746094 23.164062 8.9375 C 22.800781 8.425781 22.339844 8.09375 21.828125 8.015625 C 21.816406 8.015625 21.808594 8.015625 21.796875 8.015625 C 21.773438 8.011719 21.746094 8.007812 21.714844 8.003906 C 21.679688 8 21.640625 8 21.601562 8 L 8.800781 8 C 8.769531 7.574219 8.707031 7.171875 8.617188 6.800781 L 10.800781 6.800781 C 11.039062 6.800781 11.199219 6.640625 11.199219 6.398438 C 11.199219 6.160156 11.039062 6 10.800781 6 L 8.351562 6 C 8.21875 5.695312 8.0625 5.425781 7.878906 5.199219 Z M 6.398438 5.199219 C 7.105469 5.199219 7.878906 6.335938 7.988281 8 L 6.417969 8 C 6.476562 7.359375 6.660156 6.96875 6.761719 6.800781 C 6.878906 6.601562 6.800781 6.359375 6.601562 6.238281 C 6.398438 6.160156 6.160156 6.199219 6.039062 6.398438 C 5.933594 6.609375 5.679688 7.152344 5.617188 8 L 4.800781 8 C 4.921875 6.320312 5.679688 5.199219 6.398438 5.199219 Z M 4.398438 8.800781 C 5.105469 8.800781 5.878906 9.9375 5.988281 11.601562 L 4.417969 11.601562 C 4.476562 10.960938 4.660156 10.566406 4.761719 10.398438 C 4.839844 10.199219 4.800781 9.960938 4.601562 9.839844 C 4.398438 9.761719 4.160156 9.800781 4.039062 10 C 3.9375 10.207031 3.679688 10.75 3.617188 11.601562 L 2.800781 11.601562 C 2.921875 9.921875 3.679688 8.800781 4.398438 8.800781 Z M 0.800781 15.601562 C 0.800781 13.71875 1.640625 12.398438 2.398438 12.398438 C 3.160156 12.398438 4 13.71875 4 15.601562 C 4 17.480469 3.160156 18.800781 2.398438 18.800781 C 1.640625 18.800781 0.800781 17.480469 0.800781 15.601562 Z M 21.601562 18.800781 L 3.878906 18.800781 C 4.054688 18.574219 4.214844 18.304688 4.351562 18 L 8 18 C 8.238281 18 8.398438 17.839844 8.398438 17.601562 C 8.398438 17.359375 8.238281 17.199219 8 17.199219 L 4.632812 17.199219 C 4.765625 16.710938 4.839844 16.171875 4.839844 15.601562 C 4.839844 15.027344 4.765625 14.488281 4.632812 14 L 7.601562 14 C 7.839844 14 8 13.839844 8 13.601562 C 8 13.359375 7.839844 13.199219 7.601562 13.199219 L 4.351562 13.199219 C 4.214844 12.894531 4.054688 12.625 3.878906 12.398438 L 21.601562 12.398438 C 21.621094 12.398438 21.644531 12.402344 21.664062 12.402344 C 21.667969 12.402344 21.671875 12.40625 21.679688 12.40625 C 21.816406 12.421875 21.953125 12.480469 22.089844 12.574219 C 22.101562 12.582031 22.109375 12.589844 22.121094 12.597656 C 22.125 12.601562 22.128906 12.601562 22.132812 12.605469 C 22.308594 12.742188 22.472656 12.945312 22.617188 13.199219 L 17.199219 13.199219 C 16.960938 13.199219 16.800781 13.359375 16.800781 13.601562 C 16.800781 13.839844 16.960938 14 17.199219 14 L 22.96875 14 C 22.972656 14.003906 22.976562 14.007812 22.976562 14.011719 C 23.085938 14.363281 23.15625 14.765625 23.1875 15.199219 L 19.601562 15.199219 C 19.359375 15.199219 19.199219 15.359375 19.199219 15.601562 C 19.199219 15.839844 19.359375 16 19.601562 16 L 23.1875 16 C 23.078125 17.664062 22.304688 18.800781 21.601562 18.800781 Z M 21.601562 18.800781"/>
</svg>

<svg xmlns="http://www.w3.org/2000/svg" width="32" height="32" viewBox="0 0 24 24">
    <path d="M18.398 6.8h1.204c.238 0 .398-.16.398-.402C20 6.16 19.84 6 19.602 6h-1.204c-.238 0-.398.16-.398.398 0 .243.16.403.398.403zm0 0M13.2 6.8H16c.238 0 .398-.16.398-.402 0-.238-.16-.398-.398-.398h-2.8c-.24 0-.4.16-.4.398 0 .243.16.403.4.403zm0 0M2.602 17.762c.199-.121.277-.364.16-.563-.121-.199-.364-.719-.364-1.597 0-.883.243-1.403.364-1.602.117-.2.039-.441-.16-.559-.204-.082-.442-.043-.563.16-.117.239-.437.919-.437 2 0 1.079.32 1.758.437 2 .082.118.242.2.36.2.081 0 .16 0 .203-.04zm0 0M9.2 14h6.402c.238 0 .398-.16.398-.398 0-.243-.16-.403-.398-.403H9.199c-.238 0-.398.16-.398.403 0 .238.16.398.398.398zm0 0M12.398 15.2c-.238 0-.398.16-.398.402 0 .238.16.398.398.398h1.204c.238 0 .398-.16.398-.398 0-.243-.16-.403-.398-.403zm0 0M10.398 15.602c0-.243-.16-.403-.398-.403H6c-.238 0-.398.16-.398.403 0 .238.16.398.398.398h4c.238 0 .398-.16.398-.398zm0 0M14.8 15.602c0 .238.16.398.4.398h2.402c.238 0 .398-.16.398-.398 0-.243-.16-.403-.398-.403h-2.403c-.238 0-.398.16-.398.403zm0 0M13.602 9.602h-1.204c-.238 0-.398.16-.398.398 0 .238.16.398.398.398h1.204c.238 0 .398-.16.398-.398 0-.238-.16-.398-.398-.398zm0 0M17.602 9.602h-2.403c-.238 0-.398.16-.398.398 0 .238.16.398.398.398h2.403c.238 0 .398-.16.398-.398 0-.238-.16-.398-.398-.398zm0 0M21.2 17.2H18c-.238 0-.398.16-.398.402 0 .238.16.398.398.398h3.2c.241 0 .402-.16.402-.398 0-.243-.16-.403-.403-.403zm0 0M15.2 17.2h-4.802c-.238 0-.398.16-.398.402 0 .238.16.398.398.398H15.2c.242 0 .403-.16.403-.398 0-.243-.16-.403-.403-.403zm0 0"/>
    <path d="M23.754 10.207c.176-.566.246-1.168.246-1.809 0-2.238-1.04-4-2.398-4H6.398c-1.285 0-2.289 1.582-2.39 3.653-1.094.281-1.906 1.742-2 3.597C.848 11.95 0 13.582 0 15.602c0 2.238 1.04 4 2.398 4h19.204c1.359 0 2.398-1.762 2.398-4 0-.649-.086-1.258-.246-1.793.176-.567.246-1.172.246-1.809 0-.648-.086-1.254-.246-1.793zm-1.957 1.406a.488.488 0 0 0-.082-.008c-.035-.003-.074-.003-.113-.003H6.8a7.536 7.536 0 0 0-.184-1.204H10c.238 0 .398-.16.398-.398 0-.238-.16-.398-.398-.398H6.352a3.385 3.385 0 0 0-.473-.801h15.723c.02 0 .043 0 .062.004h.016a.917.917 0 0 1 .41.168c.012.007.02.015.031.023l.012.012a2 2 0 0 1 .484.594h-3.015c-.243 0-.403.16-.403.398 0 .238.16.398.403.398h3.367c.004.004.008.008.008.012.14.461.222.996.222 1.59 0 .191-.035.344-.039.531-.363-.508-.82-.84-1.332-.914-.012 0-.02-.004-.031-.004zM21.602 5.2c.355 0 .73.293 1.03.801H21.2c-.238 0-.398.16-.398.398 0 .243.16.403.398.403h1.774c.14.46.226 1 .226 1.597 0 .196 0 .348-.035.54-.363-.512-.824-.844-1.336-.922h-.031a2.061 2.061 0 0 0-.082-.012C21.68 8 21.64 8 21.602 8H8.8a7.418 7.418 0 0 0-.184-1.2h2.184c.238 0 .398-.16.398-.402 0-.238-.16-.398-.398-.398H8.35a3.466 3.466 0 0 0-.472-.8zm-15.204 0c.707 0 1.48 1.137 1.59 2.801h-1.57c.059-.64.242-1.031.344-1.2.117-.198.039-.44-.16-.562-.204-.078-.442-.039-.563.16-.105.211-.36.754-.422 1.602h-.816c.12-1.68.879-2.8 1.597-2.8zm-2 3.602c.707 0 1.48 1.136 1.59 2.8h-1.57c.059-.64.242-1.035.344-1.203.078-.199.039-.437-.16-.558-.204-.078-.442-.04-.563.16-.101.207-.36.75-.422 1.602h-.816C2.92 9.922 3.68 8.8 4.398 8.8zM.801 15.6c0-1.882.84-3.203 1.597-3.203.762 0 1.602 1.32 1.602 3.204C4 17.48 3.16 18.8 2.398 18.8c-.757 0-1.597-1.32-1.597-3.2zm20.8 3.2H3.88c.176-.227.336-.496.473-.801H8c.238 0 .398-.16.398-.398 0-.243-.16-.403-.398-.403H4.633a6.103 6.103 0 0 0 .207-1.597c0-.575-.074-1.114-.207-1.602h2.969c.238 0 .398-.16.398-.398 0-.243-.16-.403-.398-.403h-3.25a3.937 3.937 0 0 0-.473-.8h17.723l.062.003c.004 0 .008.004.016.004a.917.917 0 0 1 .41.168c.012.008.02.016.031.024.004.004.008.004.012.007a2 2 0 0 1 .484.594H17.2c-.238 0-.398.16-.398.403 0 .238.16.398.398.398h5.77c.004.004.008.008.008.012.109.351.18.754.21 1.187h-3.585c-.243 0-.403.16-.403.403 0 .238.16.398.403.398h3.585c-.109 1.664-.882 2.8-1.585 2.8zm0 0"/>
</svg>
